X: 1
T: Christine Morrison's Jig
C: John Campbell
R: jig
M: 6/8
L: 1/8
K: G
g \
| "G"d2B "D7"c2A | "G"BGG GAB | "C"c2E "A7"A2G | "D7"FDD D2g \
| "G"d2B "D7"c2A | "G"BGG GAB | "Am"c2E "D7"FED | "G"G3 G2 :|
f \
| "D"afd dfa | "G"bgg gab | "D"a2f "A7"g2e | "D"fdd d2f \
| "D"afd dfa | "G"bgg gab | "D"afd "A7"ge^c | "D"d3 d2 |]
f \
| "D"afd dfa | "G"bgg gab | "D"a2f "A7"g2e | "D"fdd "D7"def \
| "G"gdB GBd | "C"ecG "Em"EGB | "D7"AFD cAF | "G"G3 G2 |]
